icons/x-24.svg

<svg xmlns="http://www.w3.org/2000/svg" width="24" height="24" viewBox="0 0 24 24"><path d="M5.72 5.72a.75.75 0 011.06 0L12 10.94l5.22-5.22a.749.749 0 011.275.326.749.749 0 01-.215.734L13.06 12l5.22 5.22a.749.749 0 01-.326 1.275.749.749 0 01-.734-.215L12 13.06l-5.22 5.22a.751.751 0 01-1.042-.018.751.751 0 01-.018-1.042L10.94 12 5.72 6.78a.75.75 0 010-1.06z"/></svg>

<svg xmlns="http://www.w3.org/2000/svg" width="24" height="24" viewBox="0 0 24 24">
  <defs/>
  <path d="M5.72,5.72 C6.013,5.428 6.487,5.428 6.78,5.72 L12,10.94 L17.22,5.72 C17.407,5.519 17.689,5.437 17.954,5.505 C18.22,5.572 18.428,5.78 18.495,6.046 C18.563,6.311 18.481,6.593 18.28,6.78 L13.06,12 L18.28,17.22 C18.481,17.407 18.563,17.689 18.495,17.954 C18.428,18.22 18.22,18.428 17.954,18.495 C17.689,18.563 17.407,18.481 17.22,18.28 L12,13.06 L6.78,18.28 C6.484,18.555 6.024,18.547 5.738,18.262 C5.453,17.976 5.445,17.516 5.72,17.22 L10.94,12 L5.72,6.78 C5.428,6.487 5.428,6.013 5.72,5.72 Z"/>
</svg>
